X:1
T:Chesham, 87.87 D
T:Chesham, 87.87 D
T:Archer Thompson Gurney (1820-1887)
T:Public Domain Courtesy of the Cyber Hymnal™
C:Archer Thompson Gurney (1820-1887)
Z:Public Domain
Z:Courtesy of the Cyber Hymnal™
%%score ( 1 2 ) ( 3 4 )
L:1/8
Q:1/4=105
M:4/4
K:Bb
V:1 treble 
V:2 treble 
V:3 bass 
V:4 bass 
V:1
 [DF]2 [DF]2 [DB]2 [DB]2 | ([CA][DB]) ([Ec][CA]) [DB]2 [DF]2 | [Fd]2 [Fd]2 (dc) ([GB][FA]) | %3
 [=EG]2 [Ec]2 F4 | [DF]2 [DF]2 [DB]2 [DB]2 | ([CA][DB]) ([Ec][CA]) [DB]2 [DF]2 | %6
 [Fd]2 [Fd]2 (dc) ([GB][FA]) | [=EG]2 [Ec]2 F4 | [FB]3 [F_A] [EG]2 G2 | %9
 ([Ge][Fd]) ([Ec][DB]) (BA) (GF) | [Ff]3 [Fe] [Fd]2 [Ff]2 | (ed) (cB) [CA]4 | %12
 [DB]2 [DB]2 e3 (z e) | [Fc]2 [Fc]2 f3 z e | d3 (z f) (fe) ([Fd][Ec]) | [DB]2 [EA]2 [DB]4 |] %16
V:2
 x8 | x8 | x4 F2 x2 | x4 F4 | x8 | x8 | x4 F2 x2 | x4 F4 | x6 G2 | x4 C2 F2 | x8 | G2 C2 x4 | %12
 x4 C2 C2 x | x4 F2 F2 x | F2 (_A2 G2) x3 | x8 |] %16
V:3
 B,2 B,2 [B,,B,]2 [B,,B,]2 | (CB,) (A,C) [B,,B,]2 [B,,B,]2 | B,2 B,2 (B,A,) (B,C) | %3
 [C,C]2 [C,G,]2 [F,A,]4 | B,2 B,2 [B,,B,]2 [B,,B,]2 | (CB,) (A,C) [B,,B,]2 [B,,B,]2 | %6
 B,2 B,2 (B,A,) (B,C) | [C,C]2 [C,G,]2 [F,A,]4 | [D,B,]2 [D,B,]2 [D,B,]2 [D,B,]2 | %9
 C2 C2 [F,C]2 [_E,C]2 | [D,B,]2 [C,A,]2 [B,,B,]2 [B,,_A,]2 | [E,G,]2 [D,F,]2 F,4 | %12
 [G,B,]2 [F,B,]2 [E,G,]2 [E,G,]2 x | [F,A,]2 [E,A,]2 [D,B,]2 [C,B,]2 x | %14
 B,2 B,2 [E,B,]2 [E,B,]2 x | F,2 [F,,C]2 [B,,B,]4 |] %16
V:4
 B,2 B,2 x4 | F,2 F,2 x4 | (B,,C,) (D,E,) F,2 F,2 | x8 | B,2 B,2 x4 | F,2 F,2 x4 | %6
 (B,,C,) (D,E,) F,2 F,2 | x8 | x8 | (C,D,) (E,=E,) x4 | x8 | x4 F,4 | x9 | x9 | %14
 (B,,C,) (D,B,,) x5 | F,2 x6 |] %16

